icons/linear-ele-media-video-pause-stop-circle.svg

<svg xmlns="http://www.w3.org/2000/svg" width="32px" height="32px" viewBox="0 0 32 32" version="1.1">
    <title>linear-ele-media-video-pause-stop-circle</title>
    <g id="linear-ele-media-video-pause-stop-circle" stroke-width="1" fill-rule="evenodd">
        <path d="M16,2 C23.7319865,2 30,8.2680135 30,16 C30,23.7319865 23.7319865,30 16,30 C8.2680135,30 2,23.7319865 2,16 C2,8.2680135 8.2680135,2 16,2 Z M16,4 C9.372583,4 4,9.372583 4,16 C4,22.627417 9.372583,28 16,28 C22.627417,28 28,22.627417 28,16 C28,9.372583 22.627417,4 16,4 Z M13,11 C13.5522847,11 14,11.4477153 14,12 L14,20 C14,20.5522847 13.5522847,21 13,21 C12.4477153,21 12,20.5522847 12,20 L12,12 C12,11.4477153 12.4477153,11 13,11 Z M19,11 C19.5522847,11 20,11.4477153 20,12 L20,20 C20,20.5522847 19.5522847,21 19,21 C18.4477153,21 18,20.5522847 18,20 L18,12 C18,11.4477153 18.4477153,11 19,11 Z" id="&#24418;&#29366;" fill-rule="nonzero" />
    </g>
</svg>

<svg xmlns="http://www.w3.org/2000/svg" viewBox="0 0 32 32"><path fill="currentColor" d="M16 2c7.732 0 14 6.268 14 14s-6.268 14-14 14S2 23.732 2 16 8.268 2 16 2m0 2C9.373 4 4 9.373 4 16s5.373 12 12 12 12-5.373 12-12S22.627 4 16 4m-3 7a1 1 0 0 1 1 1v8a1 1 0 0 1-2 0v-8a1 1 0 0 1 1-1m6 0a1 1 0 0 1 1 1v8a1 1 0 0 1-2 0v-8a1 1 0 0 1 1-1"/></svg>
